icons/svgs/star-half-stroke-solid.svg

<svg width="24" height="24" viewBox="0 0 24 24" fill="none" xmlns="http://www.w3.org/2000/svg">
<path d="M12.4998 16.7266L13.5154 17.2734L16.8357 19.0312L16.2107 15.2422L16.0154 14.1094L16.8357 13.3281L19.5701 10.5938L15.8201 10.0469L14.6482 9.89062L14.1404 8.83594L12.4998 5.39844V5.4375V16.7266ZM19.3357 20.5547C19.4138 21.0234 19.2185 21.4922 18.8279 21.7656C18.4373 22.0781 17.9295 22.0781 17.4998 21.8828L12.4998 19.1875L7.46071 21.8828C7.07009 22.0781 6.52321 22.0781 6.17165 21.7656C5.78102 21.4922 5.58571 21.0234 5.66384 20.5547L6.60134 14.8516L2.53884 10.8281C2.22634 10.5156 2.07009 10.0078 2.22634 9.57812C2.38259 9.10938 2.77321 8.79688 3.24196 8.71875L8.86696 7.89844L11.367 2.70312C11.5623 2.27344 11.992 2 12.4998 2C12.9685 2 13.3982 2.27344 13.6326 2.70312L16.1326 7.89844L21.7185 8.71875C22.1873 8.79688 22.5779 9.10938 22.7341 9.57812C22.8904 10.0078 22.7732 10.5156 22.4216 10.8281L18.3591 14.8516L19.3357 20.5547Z" fill="black"/>
</svg>

<svg xmlns="http://www.w3.org/2000/svg" width="24" height="24" fill="currentColor" class="icon-star-half-stroke-solid" viewBox="0 0 24 24">
  <mask id="a" width="21" height="21" x="2" y="2" maskUnits="userSpaceOnUse" style="mask-type:alpha">
    <path d="m12.5 16.727 1.016.546 3.32 1.758-.625-3.789-.195-1.133.82-.78 2.734-2.735-3.75-.547-1.171-.156-.508-1.055L12.5 5.398zm6.836 3.828c.078.468-.117.937-.508 1.21-.39.313-.898.313-1.328.118l-5-2.695-5.039 2.695c-.39.195-.938.195-1.29-.117a1.23 1.23 0 0 1-.507-1.211l.938-5.703-4.063-4.024c-.312-.312-.469-.82-.312-1.25a1.27 1.27 0 0 1 1.015-.86l5.625-.82 2.5-5.195c.195-.43.625-.703 1.133-.703.469 0 .899.273 1.133.703l2.5 5.195 5.586.82c.468.079.86.391 1.015.86.157.43.04.938-.312 1.25l-4.063 4.024z"/>
  </mask>
  <g mask="url(#a)">
    <path d="M0 0h24v24H0z"/>
  </g>
</svg>
